svgs/duotone/loader.svg

<svg xmlns="http://www.w3.org/2000/svg" viewBox="0 0 512 512"><!--! Font Awesome Pro 6.0.0-alpha3 by @fontawesome - https://fontawesome.com License - https://fontawesome.com/license (Commercial License) --><defs><style>.fa-secondary{opacity:.4}</style></defs><path class="fa-primary" d="M256 0C238.3 0 224 14.33 224 32v64c0 17.67 14.31 32 32 32s32-14.33 32-32V32C288 14.33 273.7 0 256 0zM256 384c-17.69 0-32 14.33-32 32v64c0 17.67 14.31 32 32 32s32-14.33 32-32v-64C288 398.3 273.7 384 256 384zM480 224h-64c-17.69 0-32 14.33-32 32s14.31 32 32 32h64c17.69 0 32-14.33 32-32S497.7 224 480 224zM96 224H32C14.31 224 0 238.3 0 256s14.31 32 32 32h64c17.69 0 32-14.33 32-32S113.7 224 96 224z"/><path class="fa-secondary" d="M369.1 174.9c8.188 0 16.38-3.125 22.62-9.359l45.28-45.25c12.5-12.5 12.5-32.77 0-45.27s-32.75-12.48-45.25-.0156L346.5 120.2c-12.5 12.5-12.5 32.77 0 45.27C352.8 171.7 360.9 174.9 369.1 174.9zM120.3 346.5l-45.28 45.25c-12.5 12.5-12.5 32.77 0 45.27c6.25 6.25 14.44 9.375 22.62 9.375s16.38-3.125 22.62-9.359l45.28-45.25c12.5-12.5 12.5-32.77 0-45.27C153 334 132.8 334 120.3 346.5zM391.8 346.5c-12.5-12.47-32.75-12.48-45.25 .0156c-12.5 12.5-12.5 32.77 0 45.27l45.28 45.25c6.25 6.234 14.44 9.359 22.62 9.359s16.38-3.125 22.62-9.375c12.5-12.5 12.5-32.77 0-45.27L391.8 346.5zM120.2 74.97C107.7 62.5 87.47 62.48 74.97 74.98s-12.5 32.77 0 45.27L120.3 165.5C126.5 171.7 134.7 174.9 142.9 174.9S159.3 171.7 165.5 165.5c12.5-12.5 12.5-32.77 0-45.27L120.2 74.97z"/></svg>

<svg xmlns="http://www.w3.org/2000/svg" viewBox="0 0 512 512"><!--! Font Awesome Pro 6.4.2 by @fontawesome - https://fontawesome.com License - https://fontawesome.com/license (Commercial License) Copyright 2023 Fonticons, Inc. --><defs><style>.fa-secondary{opacity:.4}</style></defs><path class="fa-primary" d="M256 0c-17.7 0-32 14.3-32 32V96c0 17.7 14.3 32 32 32s32-14.3 32-32V32c0-17.7-14.3-32-32-32zM0 256c0 17.7 14.3 32 32 32H96c17.7 0 32-14.3 32-32s-14.3-32-32-32H32c-17.7 0-32 14.3-32 32zM120.2 75C107.7 62.5 87.5 62.5 75 75s-12.5 32.8 0 45.3l45.3 45.3c12.5 12.5 32.8 12.5 45.3 0s12.5-32.8 0-45.3L120.2 75z"/><path class="fa-secondary" d="M346.5 120.2c-12.5 12.5-12.5 32.8 0 45.3s32.8 12.5 45.3 0L437 120.2c12.5-12.5 12.5-32.8 0-45.3s-32.8-12.5-45.3 0l-45.3 45.3zM384 256c0 17.7 14.3 32 32 32h64c17.7 0 32-14.3 32-32s-14.3-32-32-32H416c-17.7 0-32 14.3-32 32zM256 384c-17.7 0-32 14.3-32 32v64c0 17.7 14.3 32 32 32s32-14.3 32-32V416c0-17.7-14.3-32-32-32zm135.8-37.5c-12.5-12.5-32.8-12.5-45.3 0s-12.5 32.8 0 45.3L391.8 437c12.5 12.5 32.8 12.5 45.3 0s12.5-32.8 0-45.3l-45.3-45.3zM75 437c12.5 12.5 32.8 12.5 45.3 0l45.3-45.3c12.5-12.5 12.5-32.8 0-45.3s-32.8-12.5-45.3 0L75 391.8c-12.5 12.5-12.5 32.8 0 45.3z"/></svg>
